X:1
T:Title
%%score { ( 1 4 ) | ( 2 3 ) }
L:1/8
M:4/4
K:Eb
V:1 treble nm="Grand Piano"
V:4 treble 
V:2 bass 
V:3 bass 
V:1
 z4 z2[Q:1/4=100] E>F | G2 G2 G2 FE | [DB]2 [DF]2 G3 G | A2 Bc B2 G2 | [EG]4 [DF]2 E>F | %5
 G2 G2 G2 FE | [DB]2 [DF]2 [EG]3 [EG] | [EA]2 [Ec]2 [EB]2 [EG]2 |[M:7/8] F- F3 z z2 | %9
[M:1/4] (3GAB |[M:4/4] c6 z2 | B6 z2 | [DF]>[C=E] [DF]>[_EG] [FA]2 [DAc]2 | [GB]4 z4 | c6 z2 | %15
 B6 z2 | [B,DF]>[B,DF] [B,EG]>[CFA] [B,EG]2 [A,DF]2 |[M:3/4] [G,E]6 |] %18
V:2
 z4 z2 [E,G,]>[E,A,E] | [E,B,E]2 [E,B,E]2 [E,B,E]2 [E,A,B,][G,B,] | %2
 [B,,F,]2 [B,,B,]2 [E,B,E]3 [E,_DE] | [E,CE]2 G,A, [E,G,E]2 [E,B,E]2 | %4
 [B,,B,]4 [B,,B,]2 [E,G,]>[E,A,E] | [E,B,E]2 [E,B,E]2 [E,B,E]2 [E,A,D][E,G,] | %6
 [B,,F,]2 [B,,B,]2 [E,B,]3 [_D,B,] | [C,A,]2 [A,,A,]2 [B,,G,]2 [B,,B,]2 | %8
[M:7/8] [B,,A,]- [B,,A,]3 [E,G,]3 |[M:1/4][K:treble] (3EFG |[M:4/4] A6 z2 | G6[K:bass] z2 | %12
 [B,,B,]>[B,,B,] [B,,B,]>[B,,B,] [B,,B,]2 B,,2 | E,2 E,2 [E,B,E]2[K:treble] (3EFG | A6 z2 | %15
 G6[K:bass] z2 | B,,>B,, E,>A,, B,,2 B,,2 |[M:3/4] E,6 |] %18
V:3
 x8 | x8 | x8 | z2 [E,E]2 z4 | x8 | x8 | x8 | x8 |[M:7/8] x7 |[M:1/4][K:treble] x2 | %10
[M:4/4] z2 (3A,A,A, A,2 (3cBA | z2[K:bass] (3E,E,E, E,2 (3E,E,E, | x8 | x6[K:treble] x2 | %14
 z2 (3A,A,A, A,2 (3cBA | z2[K:bass] (3E,E,E, E,2 (3E,E,E, | x8 |[M:3/4] x6 |] %18
V:4
 x8 | x8 | x8 | x8 | x8 | x8 | x8 | x8 |[M:7/8] E2 D2 E3 |[M:1/4] x2 |[M:4/4] z2 (3EEE E2 (3edc | %11
 z2 (3EEE E2 (3[EGB][B,FA][B,EG] | x8 | E2 E2 G2 (3GAB | z2 (3EEE E2 (3edc | %15
 z2 (3EEE E2 (3[EGB][B,FA][B,EG] | x8 |[M:3/4] x6 |] %18

